images/footer__instagram.svg

<svg width="24" height="24" viewBox="0 0 24 24" fill="none" xmlns="http://www.w3.org/2000/svg">
<path d="M6.96 0H17.04C20.88 0 24 3.12 24 6.96V17.04C24 18.8859 23.2667 20.6562 21.9615 21.9615C20.6562 23.2667 18.8859 24 17.04 24H6.96C3.12 24 0 20.88 0 17.04V6.96C0 5.11409 0.733284 3.34379 2.03854 2.03854C3.34379 0.733284 5.11409 0 6.96 0ZM6.72 2.4C5.57427 2.4 4.47546 2.85514 3.6653 3.6653C2.85514 4.47546 2.4 5.57427 2.4 6.72V17.28C2.4 19.668 4.332 21.6 6.72 21.6H17.28C18.4257 21.6 19.5245 21.1449 20.3347 20.3347C21.1449 19.5245 21.6 18.4257 21.6 17.28V6.72C21.6 4.332 19.668 2.4 17.28 2.4H6.72ZM18.3 4.2C18.6978 4.2 19.0794 4.35804 19.3607 4.63934C19.642 4.92064 19.8 5.30218 19.8 5.7C19.8 6.09783 19.642 6.47936 19.3607 6.76066C19.0794 7.04197 18.6978 7.2 18.3 7.2C17.9022 7.2 17.5206 7.04197 17.2393 6.76066C16.958 6.47936 16.8 6.09783 16.8 5.7C16.8 5.30218 16.958 4.92064 17.2393 4.63934C17.5206 4.35804 17.9022 4.2 18.3 4.2ZM12 6C13.5913 6 15.1174 6.63214 16.2426 7.75736C17.3679 8.88258 18 10.4087 18 12C18 13.5913 17.3679 15.1174 16.2426 16.2426C15.1174 17.3679 13.5913 18 12 18C10.4087 18 8.88258 17.3679 7.75736 16.2426C6.63214 15.1174 6 13.5913 6 12C6 10.4087 6.63214 8.88258 7.75736 7.75736C8.88258 6.63214 10.4087 6 12 6ZM12 8.4C11.0452 8.4 10.1295 8.77928 9.45442 9.45442C8.77928 10.1295 8.4 11.0452 8.4 12C8.4 12.9548 8.77928 13.8705 9.45442 14.5456C10.1295 15.2207 11.0452 15.6 12 15.6C12.9548 15.6 13.8705 15.2207 14.5456 14.5456C15.2207 13.8705 15.6 12.9548 15.6 12C15.6 11.0452 15.2207 10.1295 14.5456 9.45442C13.8705 8.77928 12.9548 8.4 12 8.4Z" fill="#00223C"/>
</svg>

<svg xmlns="http://www.w3.org/2000/svg" width="24" height="24" fill="none"><path fill="#00223C" d="M6.96 0h10.08C20.88 0 24 3.12 24 6.96v10.08A6.96 6.96 0 0 1 17.04 24H6.96C3.12 24 0 20.88 0 17.04V6.96A6.96 6.96 0 0 1 6.96 0Zm-.24 2.4A4.32 4.32 0 0 0 2.4 6.72v10.56a4.317 4.317 0 0 0 4.32 4.32h10.56a4.32 4.32 0 0 0 4.32-4.32V6.72a4.317 4.317 0 0 0-4.32-4.32H6.72ZM18.3 4.2a1.5 1.5 0 1 1 0 3 1.5 1.5 0 0 1 0-3ZM12 6a6 6 0 1 1 0 12 6 6 0 0 1 0-12Zm0 2.4a3.6 3.6 0 1 0 0 7.2 3.6 3.6 0 0 0 0-7.2Z"/></svg>
